X:2308
T:Hunt the Wren 
C:Traditional
O:Isle of Man
S:Mona Melodies No 11 
Z:Clague collection
B:Kiaull Vannin #308
N:See also KV 158, 365, 402 
M:6/8 
Q:150 
K:D 
A|d2d d2d|AFD DFA|d2d eee|f>ed cBA|d2d d2d| AFD FGA|B2B B2B|AGF E2:| 
A|e2e e2e|gfe fga|b2b b2b|agf e3|e2e e2e|gfa fga|b2b b2b|agf e2:| 

